X:1
T:Title
%%score { ( 1 4 5 ) | ( 2 3 ) }
L:1/8
M:6/8
K:Bb
V:1 treble nm="Grand Piano"
V:4 treble 
V:5 treble 
V:2 treble 
V:3 treble 
V:1
 z3 z2[Q:1/4=90] F | F2 B [Fd]2 [Fc] | [GB]AG F2 F | BBB AAA | AAA A2 F | FFB d2 c | z3 [Fc]3 | %7
 z3 .c3 | [FB][FA][=EG] F3 | F3 FFF | .F3 z2 F | B2 B A2 A | G2 G F2 F | EEE DCB, | F2 F F2 F | %15
 .d3 .[Af]3 | .B3 .[Fd]3 | GG[EA] B2 [Ge] | .d6 | .c6 | B6- |[M:5/8] B-B- B2- B/ z/ |] %22
V:2
 z3 z2 [B,D] | [B,D]2 [B,DF][K:bass] [B,,B,]2 [D,B,] | z[K:treble] F[G,B,E] [B,D]2 [A,D] | %3
 [G,DF][G,DG][G,DF] [A,DF][A,_DF][A,=DF] | [A,=EG][A,DF][A,_DE] [=DF]2[K:bass] [A,D] | %5
 [B,D][B,D][A,B,D] [G,B,D]2 [G,C=E] | [_D=E]-[A,DE]B, A,G,F, | %7
 [D,_A,][D,G,][D,A,] [C,=A,]2 [C,A,] | [C,G,][C,A,][C,B,] [F,A,]3 | F,3 [F,D][F,CE][F,B,D] | %10
 .[F,A,C]3 z2 F, | B,2 B, A,2 A, | G,2 G, F,2 F, | E,E,E, D,C,B,, | F,2 F, F,2 F, | %15
 .[B,DB]2 [B,FB][K:bass] .[F,E]2 [F,C] | .[G,B,G]2 [G,DG][K:bass] .[D,C]2 [D,A,] | %17
 [E,G,][E,G,][C,^F,] [G,D]2 [E,B,] | .B,3 z3 | .A,3 z3 | z3 .G,3 | %21
[M:5/8] [B,,F,]-[B,,F,]- [B,,F,]3 |] %22
V:3
 x6 | x3[K:bass] x3 | .[E,B,]3[K:treble] z3 | x6 | x5[K:bass] x | x6 | .G,3 z3 | x6 | x6 | x6 | %10
 x6 | x6 | x6 | x6 | x6 | x3[K:bass] x3 | x3[K:bass] x3 | x6 | [F,-F]6 | %19
 [F,,F,E]3- [F,,F,E]2 [F,CE] | [B,,B,]3 B,,2- [B,,E,] |[M:5/8] x5 |] %22
V:4
 x6 | x6 | x6 | x6 | x6 | x6 | BA[_D=EG] CB,A, | [F=B][FB][FB] F-[Fd][Fc] | x6 | x6 | x6 | x6 | %12
 x6 | x6 | x6 | z Ed z D[Af] | z CB z B,[Fd] | x6 | z2 C z cB | z2 B, z BA | D3 E2 C | %21
[M:5/8] D-D- D3 |] %22
V:5
 x6 | x6 | x6 | x6 | x6 | x6 | x6 | x6 | x6 | x6 | x6 | x6 | x6 | x6 | x6 | x6 | x6 | x6 | z3 D3 | %19
 z3 .C3 | x6 |[M:5/8] x5 |] %22

